material/.icons/material/diameter-variant.svg

<svg xmlns="http://www.w3.org/2000/svg" viewBox="0 0 24 24"><path d="M4.15 21.46l1.32-1.88A10.012 10.012 0 012 12 10 10 0 0112 2c1.78 0 3.44.46 4.89 1.27l1.32-1.88 1.64 1.15-1.32 1.88C20.65 6.26 22 8.97 22 12a10 10 0 01-10 10c-1.78 0-3.44-.46-4.89-1.27l-1.32 1.88-1.64-1.15M12 4a8 8 0 00-8 8c0 2.35 1 4.46 2.63 5.93l9.1-13.01A7.921 7.921 0 0012 4m0 16a8 8 0 008-8c0-2.35-1-4.46-2.63-5.93l-9.1 13.01c1.11.59 2.38.92 3.73.92z"/></svg>

<?xml version="1.0" encoding="UTF-8"?><!DOCTYPE svg PUBLIC "-//W3C//DTD SVG 1.1//EN" "http://www.w3.org/Graphics/SVG/1.1/DTD/svg11.dtd"><svg xmlns="http://www.w3.org/2000/svg" xmlns:xlink="http://www.w3.org/1999/xlink" version="1.1" id="mdi-diameter-variant" width="24" height="24" viewBox="0 0 24 24"><path d="M4.15,21.46L5.47,19.58C3.35,17.74 2,15.03 2,12A10,10 0 0,1 12,2C13.78,2 15.44,2.46 16.89,3.27L18.21,1.39L19.85,2.54L18.53,4.42C20.65,6.26 22,8.97 22,12A10,10 0 0,1 12,22C10.22,22 8.56,21.54 7.11,20.73L5.79,22.61L4.15,21.46M12,4A8,8 0 0,0 4,12C4,14.35 5,16.46 6.63,17.93L15.73,4.92C14.62,4.33 13.35,4 12,4M12,20A8,8 0 0,0 20,12C20,9.65 19,7.54 17.37,6.07L8.27,19.08C9.38,19.67 10.65,20 12,20Z" /></svg>
